components/AnnouncementBar/logos/color-thredup.svg

<svg width="601" height="137" viewBox="0 0 601 137" fill="none" xmlns="http://www.w3.org/2000/svg">
<path d="M505.7 0.225006H491.7C490.5 0.225006 489.4 1.22499 489.4 2.52499V68.425C489.4 75.425 483.6 80.225 475.1 80.225C466.6 80.225 461.1 75.225 461.1 68.425V2.52499C461.1 1.32499 460.1 0.225006 458.8 0.225006H444.5C443.3 0.225006 442.2 1.22499 442.2 2.52499V68.425C442.2 85.325 456.5 98.825 474.6 98.825C492.8 98.825 507.4 85.425 507.4 68.425V2.52499C507.6 1.52499 507.2 0.625006 506.2 0.225006C506.1 0.225006 505.9 0.225006 505.7 0.225006Z" fill="black"/>
<path d="M568.5 0.225H537.8C536.6 0.225 535.5 1.22499 535.5 2.52499V95.025C535.5 96.225 536.5 97.325 537.8 97.325H551.8C553 97.325 554.1 96.325 554.1 95.025V59.925C554.1 58.925 554.7 57.825 555.8 57.825C555.8 57.825 555.8 57.825 556 57.825H568.8C584.7 59.025 598.8 47.325 600 31.425C601.2 15.525 589.5 1.425 573.6 0.225C571.8 -0.075 570.2 -0.075 568.5 0.225ZM568.5 39.425H555.9C554.9 39.425 553.8 38.825 553.8 37.725C553.8 37.725 553.8 37.725 553.8 37.525V20.625C553.8 19.625 554.4 18.525 555.5 18.525C555.5 18.525 555.5 18.525 555.7 18.525H568.5C574.1 18.725 578.6 23.325 578.8 28.825C578.9 34.725 574.3 39.225 568.5 39.425Z" fill="black"/>
<path d="M62.4 39.425H2.3C1.1 39.425 0 40.425 0 41.725V55.725C0 56.925 0.799999 57.825 2.1 57.825H2.3H21.3C22.3 57.825 23.4 58.425 23.4 59.525C23.4 59.525 23.4 59.525 23.4 59.725V134.225C23.4 135.425 24.4 136.525 25.7 136.525H39.7C40.9 136.525 42 135.525 42 134.225V59.825C42 58.825 42.8 57.925 43.9 57.725H63.1C64.3 57.725 65.4 56.725 65.4 55.425V41.425C64.9 40.225 63.6 39.425 62.4 39.425Z" fill="black"/>
<path d="M151.9 39.425H137.9C136.7 39.425 135.6 40.425 135.6 41.725V76.825C135.6 77.825 134.8 78.725 133.7 78.925H112.2C111.2 78.925 110.1 78.325 110.1 77.225C110.1 77.225 110.1 77.225 110.1 77.025V41.725C110.1 40.525 109.1 39.425 107.8 39.425H94C92.8 39.425 91.7 40.425 91.7 41.725V134.225C91.7 135.425 92.7 136.525 94 136.525H107.4C108.6 136.525 110.3 135.525 110.3 134.225V99.125C110.3 98.125 110.9 97.025 112 97.025C112 97.025 112 97.025 112.2 97.025H133.7C134.7 97.025 135.6 97.825 135.8 98.925V134.225C135.8 135.425 136.8 136.525 138.1 136.525H152.1C153.3 136.525 154.4 135.525 154.4 134.225V41.725C154.1 40.425 153.1 39.425 151.9 39.425Z" fill="black"/>
<path d="M245.2 68.325C245.2 52.425 232.2 39.425 216.3 39.425H185.7C184.5 39.425 183.4 40.425 183.4 41.725V134.225C183.4 135.425 184.4 136.525 185.7 136.525H199.7C200.9 136.525 202 135.525 202 134.225V99.125C202 98.125 202.6 97.025 203.7 97.025C203.7 97.025 203.7 97.025 203.9 97.025H207.8C209.2 97.025 210.5 97.825 210.9 99.325L225.2 134.025C225.6 135.425 227.1 136.525 228.7 136.525H243.2C244 136.725 244.9 136.325 245.3 135.525C245.7 134.725 245.7 133.825 245.3 133.025L230.2 97.925C229.2 95.625 229 94.225 231.2 92.525C241.1 85.925 245.2 78.425 245.2 68.325ZM216.3 78.725H203.7C202.7 78.725 201.6 78.125 201.6 77.025C201.6 77.025 201.6 77.025 201.6 76.825V59.925C201.6 58.925 202.4 58.025 203.5 57.825H216.3C221.9 57.825 226.6 62.625 226.6 68.125C226.8 73.725 222.5 78.425 216.9 78.625C216.7 78.725 216.5 78.725 216.3 78.725Z" fill="black"/>
<path d="M324.4 117.925H291.3C290.3 117.925 289.2 117.325 289.2 116.225C289.2 116.225 289.2 116.225 289.2 116.025V99.125C289.2 98.125 289.8 97.025 290.9 97.025C290.9 97.025 290.9 97.025 291.1 97.025H315.5C316.7 97.025 317.8 96.025 317.8 94.725V80.725C317.8 79.525 316.8 78.425 315.5 78.425H291.3C290.3 78.425 289.2 77.825 289.2 76.725C289.2 76.725 289.2 76.725 289.2 76.525V59.625C289.2 58.625 290 57.725 291.1 57.525H324.4C325.6 57.525 326.7 56.525 326.7 55.225V41.225C326.7 40.025 325.7 38.925 324.4 38.925H273C271.8 38.925 270.7 39.925 270.7 41.225V133.725C270.7 134.925 271.7 136.025 273 136.025H324.4C325.6 136.025 326.7 135.025 326.7 133.725V119.725C326.4 118.725 325.4 117.925 324.4 117.925Z" fill="black"/>
<path d="M385.7 39.425H356.2C355 39.425 353.9 40.425 353.9 41.725V134.225C353.9 135.425 354.9 136.525 356.2 136.525H385.7C401.6 136.525 414.2 123.925 416.3 106.125C417.7 94.125 417.7 82.125 416.3 70.225C414.2 52.025 401.6 39.425 385.7 39.425ZM397.7 106.125C396.9 113.125 391.9 118.125 385.5 118.125H374.3C373.3 118.125 372.2 117.525 372.2 116.425C372.2 116.425 372.2 116.425 372.2 116.225V59.825C372.2 58.825 373 57.925 374.1 57.725H385.5C391.9 57.725 396.9 62.725 397.7 69.725C399.1 81.825 399.1 93.925 397.7 106.125Z" fill="black"/>
</svg>

<svg xmlns="http://www.w3.org/2000/svg" width="601" height="137" fill="none" viewBox="0 0 601 137">
  <path fill="#000" d="M505.7.225h-14c-1.2 0-2.3 1-2.3 2.3v65.9c0 7-5.8 11.8-14.3 11.8s-14-5-14-11.8v-65.9c0-1.2-1-2.3-2.3-2.3h-14.3c-1.2 0-2.3 1-2.3 2.3v65.9c0 16.9 14.3 30.4 32.4 30.4 18.2 0 32.8-13.4 32.8-30.4v-65.9c.2-1-.2-1.9-1.2-2.3h-.5Zm62.8 0h-30.7c-1.2 0-2.3 1-2.3 2.3v92.5c0 1.2 1 2.3 2.3 2.3h14c1.2 0 2.3-1 2.3-2.3v-35.1c0-1 .6-2.1 1.7-2.1h13c15.9 1.2 30-10.5 31.2-26.4 1.2-15.9-10.5-30-26.4-31.2-1.8-.3-3.4-.3-5.1 0Zm0 39.2h-12.6c-1 0-2.1-.6-2.1-1.7v-17.1c0-1 .6-2.1 1.7-2.1h13c5.6.2 10.1 4.8 10.3 10.3.1 5.9-4.5 10.4-10.3 10.6Zm-506.1 0H2.3c-1.2 0-2.3 1-2.3 2.3v14c0 1.2.8 2.1 2.1 2.1h19.2c1 0 2.1.6 2.1 1.7v74.7c0 1.2 1 2.3 2.3 2.3h14c1.2 0 2.3-1 2.3-2.3v-74.4c0-1 .8-1.9 1.9-2.1h19.2c1.2 0 2.3-1 2.3-2.3v-14c-.5-1.2-1.8-2-3-2Zm89.5 0h-14c-1.2 0-2.3 1-2.3 2.3v35.1c0 1-.8 1.9-1.9 2.1h-21.5c-1 0-2.1-.6-2.1-1.7v-35.5c0-1.2-1-2.3-2.3-2.3H94c-1.2 0-2.3 1-2.3 2.3v92.5c0 1.2 1 2.3 2.3 2.3h13.4c1.2 0 2.9-1 2.9-2.3v-35.1c0-1 .6-2.1 1.7-2.1h21.7c1 0 1.9.8 2.1 1.9v35.3c0 1.2 1 2.3 2.3 2.3h14c1.2 0 2.3-1 2.3-2.3v-92.5c-.3-1.3-1.3-2.3-2.5-2.3Zm93.3 28.9c0-15.9-13-28.9-28.9-28.9h-30.6c-1.2 0-2.3 1-2.3 2.3v92.5c0 1.2 1 2.3 2.3 2.3h14c1.2 0 2.3-1 2.3-2.3v-35.1c0-1 .6-2.1 1.7-2.1h4.1c1.4 0 2.7.8 3.1 2.3l14.3 34.7c.4 1.4 1.9 2.5 3.5 2.5h14.5c.8.2 1.7-.2 2.1-1 .4-.8.4-1.7 0-2.5l-15.1-35.1c-1-2.3-1.2-3.7 1-5.4 9.9-6.6 14-14.1 14-24.2Zm-28.9 10.4h-12.6c-1 0-2.1-.6-2.1-1.7v-17.1c0-1 .8-1.9 1.9-2.1h12.8c5.6 0 10.3 4.8 10.3 10.3.2 5.6-4.1 10.3-9.7 10.5-.2.1-.4.1-.6.1Zm108.1 39.2h-33.1c-1 0-2.1-.6-2.1-1.7v-17.1c0-1 .6-2.1 1.7-2.1h24.6c1.2 0 2.3-1 2.3-2.3v-14c0-1.2-1-2.3-2.3-2.3h-24.2c-1 0-2.1-.6-2.1-1.7v-17.1c0-1 .8-1.9 1.9-2.1h33.3c1.2 0 2.3-1 2.3-2.3v-14c0-1.2-1-2.3-2.3-2.3H273c-1.2 0-2.3 1-2.3 2.3v92.5c0 1.2 1 2.3 2.3 2.3h51.4c1.2 0 2.3-1 2.3-2.3v-14c-.3-1-1.3-1.8-2.3-1.8Zm61.3-78.5h-29.5c-1.2 0-2.3 1-2.3 2.3v92.5c0 1.2 1 2.3 2.3 2.3h29.5c15.9 0 28.5-12.6 30.6-30.4 1.4-12 1.4-24 0-35.9-2.1-18.2-14.7-30.8-30.6-30.8Zm12 66.7c-.8 7-5.8 12-12.2 12h-11.2c-1 0-2.1-.6-2.1-1.7v-56.6c0-1 .8-1.9 1.9-2.1h11.4c6.4 0 11.4 5 12.2 12 1.4 12.1 1.4 24.2 0 36.4Z"/>
</svg>
